build/img/09.svg

<svg width="129" height="84" viewBox="0 0 129 84" fill="none" xmlns="http://www.w3.org/2000/svg">
<path d="M106.923 52.2064C108.232 51.6637 109.468 51.0192 110.632 50.2732V54.8002C110.632 56.9408 110.115 58.9647 109.073 60.8859L109.07 60.8913C108.07 62.7622 106.635 64.299 104.744 65.5059C102.933 66.6492 100.763 67.2402 98.1923 67.2402C96.6185 67.2402 95.0526 66.92 93.4881 66.2686C91.9619 65.6187 90.6177 64.7114 89.4494 63.5431L88.7423 62.836L88.0352 63.5431L77.8502 73.7281L77.11 74.4683L77.8833 75.1739C80.7757 77.8132 83.9383 79.7261 87.3701 80.8943L87.37 80.8944L87.3821 80.8984C90.8123 82.0177 94.4174 82.5752 98.1923 82.5752C104 82.5752 109.107 81.3913 113.479 78.9864L113.485 78.9833C117.854 76.5437 121.245 73.0785 123.644 68.608L123.645 68.605C126.047 64.093 127.227 58.7799 127.227 52.7002V30.7552C127.227 25.1172 126.041 20.1157 123.637 15.7811C121.244 11.4309 117.97 8.02559 113.821 5.58654C109.698 3.14265 105.04 1.93019 99.8723 1.93019C94.9464 1.93019 90.4006 3.10919 86.2549 5.47234C82.1221 7.79312 78.7976 10.9537 76.2938 14.9446C73.7726 18.928 72.5173 23.4023 72.5173 28.3402C72.5173 33.2466 73.5649 37.6503 75.685 41.5252L75.6886 41.5315C77.8385 45.3941 80.7982 48.4466 84.5578 50.6731L84.5614 50.6753C88.3737 52.9113 92.7527 54.0152 97.6673 54.0152C100.842 54.0152 103.926 53.4124 106.913 52.2104L106.923 52.2064ZM15.6129 5.46956L16.1004 6.34269L15.6129 5.46957C11.2511 7.9049 7.84509 11.3109 5.40976 15.6727C2.9688 20.0446 1.76538 25.1178 1.76538 30.8602V53.5402C1.76538 59.2826 2.9688 64.3558 5.40976 68.7277C7.84509 73.0895 11.2511 76.4955 15.6129 78.9308C19.9847 81.3718 25.0579 82.5752 30.8004 82.5752C36.5428 82.5752 41.616 81.3718 45.9879 78.9308C50.3497 76.4955 53.7557 73.0895 56.191 68.7277C58.632 64.3558 59.8354 59.2826 59.8354 53.5402V30.8602C59.8354 25.1178 58.632 20.0446 56.191 15.6727C53.7557 11.3109 50.3497 7.9049 45.9879 5.46957C41.616 3.02862 36.5428 1.8252 30.8004 1.8252C25.0579 1.8252 19.9847 3.02862 15.6129 5.46956ZM109.146 33.8131L109.143 33.8182C108.181 35.454 106.868 36.7689 105.19 37.7697C103.567 38.7239 101.767 39.2052 99.7673 39.2052C97.7693 39.2052 95.9703 38.7247 94.3481 37.772C92.7072 36.7733 91.4108 35.4597 90.4467 33.8223C89.4885 32.1602 89.0073 30.3395 89.0073 28.3402C89.0073 26.3422 89.4878 24.5433 90.4405 22.9211C91.4393 21.2801 92.7529 19.9835 94.3905 19.0194C96.0525 18.0613 97.8731 17.5802 99.8723 17.5802C101.867 17.5802 103.663 18.0762 105.285 19.0622C106.931 20.0622 108.23 21.3783 109.195 23.0197C110.154 24.6488 110.632 26.4159 110.632 28.3402C110.632 30.3345 110.136 32.1519 109.146 33.8131ZM37.1197 65.3825C35.2539 66.4762 33.1557 67.0302 30.8004 67.0302C28.4451 67.0302 26.3468 66.4762 24.4811 65.3825C22.5987 64.279 21.1116 62.7919 20.0081 60.9095C18.9144 59.0437 18.3604 56.9455 18.3604 54.5902V29.7052C18.3604 27.3499 18.9144 25.2516 20.0081 23.3859C21.1116 21.5035 22.5987 20.0164 24.4811 18.9129C26.3468 17.8192 28.4451 17.2652 30.8004 17.2652C33.1557 17.2652 35.2539 17.8192 37.1197 18.9129C39.0021 20.0164 40.4892 21.5035 41.5927 23.3859C42.6864 25.2516 43.2404 27.3499 43.2404 29.7052V54.5902C43.2404 56.9455 42.6864 59.0437 41.5927 60.9095C40.4892 62.7919 39.0021 64.279 37.1197 65.3825Z" stroke="#FFCC24" stroke-width="2"/>
</svg>

<?xml version="1.0" encoding="utf-8"?>
<!-- Generator: Adobe Illustrator 26.3.1, SVG Export Plug-In . SVG Version: 6.00 Build 0)  -->
<svg version="1.1" id="Слой_1" xmlns="http://www.w3.org/2000/svg" xmlns:xlink="http://www.w3.org/1999/xlink" x="0px" y="0px"
	 viewBox="0 0 129 84" style="enable-background:new 0 0 129 84;" xml:space="preserve">
<style type="text/css">
	.st0{fill:#FFFFFF;stroke:#FFCC24;stroke-width:2;}
</style>
<path class="st0" d="M106.9,52.2c1.3-0.5,2.5-1.2,3.7-1.9v4.5c0,2.1-0.5,4.2-1.6,6.1l0,0c-1,1.9-2.4,3.4-4.3,4.6
	c-1.8,1.1-4,1.7-6.6,1.7c-1.6,0-3.1-0.3-4.7-1c-1.5-0.6-2.9-1.6-4-2.7l-0.7-0.7L88,63.5L77.9,73.7l-0.7,0.7l0.8,0.7
	c2.9,2.6,6.1,4.6,9.5,5.7l0,0l0,0c3.4,1.1,7,1.7,10.8,1.7c5.8,0,10.9-1.2,15.3-3.6l0,0c4.4-2.4,7.8-5.9,10.2-10.4l0,0
	c2.4-4.5,3.6-9.8,3.6-15.9V30.8c0-5.6-1.2-10.6-3.6-15c-2.4-4.4-5.7-7.8-9.8-10.2c-4.1-2.4-8.8-3.7-13.9-3.7
	c-4.9,0-9.5,1.2-13.6,3.5c-4.1,2.3-7.5,5.5-10,9.5c-2.5,4-3.8,8.5-3.8,13.4c0,4.9,1,9.3,3.2,13.2l0,0c2.1,3.9,5.1,6.9,8.9,9.1l0,0
	c3.8,2.2,8.2,3.3,13.1,3.3C100.8,54,103.9,53.4,106.9,52.2L106.9,52.2z M15.6,5.5l0.5,0.9L15.6,5.5c-4.4,2.4-7.8,5.8-10.2,10.2
	C3,20,1.8,25.1,1.8,30.9v22.7c0,5.7,1.2,10.8,3.6,15.2c2.4,4.4,5.8,7.8,10.2,10.2c4.4,2.4,9.4,3.6,15.2,3.6c5.7,0,10.8-1.2,15.2-3.6
	c4.4-2.4,7.8-5.8,10.2-10.2c2.4-4.4,3.6-9.4,3.6-15.2V30.9c0-5.7-1.2-10.8-3.6-15.2C53.8,11.3,50.3,7.9,46,5.5
	C41.6,3,36.5,1.8,30.8,1.8C25.1,1.8,20,3,15.6,5.5z M109.1,33.8L109.1,33.8c-1,1.6-2.3,3-4,4c-1.6,1-3.4,1.4-5.4,1.4
	c-2,0-3.8-0.5-5.4-1.4c-1.6-1-2.9-2.3-3.9-3.9c-1-1.7-1.4-3.5-1.4-5.5c0-2,0.5-3.8,1.4-5.4c1-1.6,2.3-2.9,4-3.9
	c1.7-1,3.5-1.4,5.5-1.4c2,0,3.8,0.5,5.4,1.5c1.6,1,2.9,2.3,3.9,4c1,1.6,1.4,3.4,1.4,5.3C110.6,30.3,110.1,32.2,109.1,33.8z
	 M37.1,65.4c-1.9,1.1-4,1.6-6.3,1.6s-4.5-0.6-6.3-1.6c-1.9-1.1-3.4-2.6-4.5-4.5c-1.1-1.9-1.6-4-1.6-6.3V29.7c0-2.4,0.6-4.5,1.6-6.3
	c1.1-1.9,2.6-3.4,4.5-4.5c1.9-1.1,4-1.6,6.3-1.6s4.5,0.6,6.3,1.6c1.9,1.1,3.4,2.6,4.5,4.5c1.1,1.9,1.6,4,1.6,6.3v24.9
	c0,2.4-0.6,4.5-1.6,6.3C40.5,62.8,39,64.3,37.1,65.4z"/>
</svg>
